X: 33
T:Beti o Llansanffraid
M:9/8
L:1/8
Q:130
S:Robin Huw Bowen
R:Slip Jig
A:Wales
Z:brian_martin12345@yahoo.com
K:Bb
d/c/|BAG GAG GAB|AGA FGA c2d/c/|BAG GAG GAB|cdc cBA B2:||!
F|Bcd edc dfF|Bcd edc d2F|Bcd edc dfd|cdc cBA B2:||!
d/c/|BAG GAG GAB|AGA FGA c2d/c/|BAG GAG GAB|cdc cBA G2:||
